icon-themes/sifr_svg/cmd/lc_graphic.svg

<svg viewBox="0 0 24 24" xmlns="http://www.w3.org/2000/svg"><path d="m12 2-9 5 3 5h6zm2 0v6h6v-6zm-4 3.6v4.4h-3.2l-1.2882812-2.4609375zm6 3.4v3h2v-3zm-11 5v4a7 4 0 0 0 7 4 7 4 0 0 0 7-4v-4z" fill="#555753"/></svg>

<svg xmlns="http://www.w3.org/2000/svg" viewBox="0 0 24 24">
  <path
     style="fill:#555753"
     d="M 12 2 L 3 7 L 6 12 L 12 12 L 12 2 z M 14 2 L 14 8 L 20 8 L 20 2 L 14 2 z M 10 5.6 L 10 10 L 6.8 10 L 5.5117188 7.5390625 L 10 5.6 z M 16 9 L 16 12 L 18 12 L 18 9 L 16 9 z M 5 14 L 5 18 A 7 4 0 0 0 12 22 A 7 4 0 0 0 19 18 L 19 14 L 5 14 z "
     />
</svg>
